X:5
T:Muschats Cairn
C:James Porteous
S:San Francisco Scottish Fiddlers Newsletter 02/02
Z:Steve Wyrick  6/11/02
S:Steve Wyrick  scots-l 2002-10-17
N:From The Skye Collection
K:G
M:4/4
"G"G,B, D2 B,D G2|"G"DG B2 "D"DCB,A,|"G"B,D G2 DG B2|"C"cAGF "G"G2 G,2:|!
"G"GB d2 Bd g2|"C"dBAG "D"FADF|"G"GBd2 Bdg2|!
"C"dAGF "G"G2G,2|"G"GBdg bgdB|"C"ca"G"Bg "D"ADFD|!
"G"GDB,2 "Am"ECA,2|"D"AFDF "G"G2 G,2||!
